round/svg/blur_linear.svg

<svg xmlns="http://www.w3.org/2000/svg" width="24" height="24"><path fill="none" d="M0 0h24v24H0V0z"/><g fill="currentColor"><path d="M5 17.5c.83 0 1.5-.67 1.5-1.5s-.67-1.5-1.5-1.5-1.5.67-1.5 1.5.67 1.5 1.5 1.5zM9 13c.55 0 1-.45 1-1s-.45-1-1-1-1 .45-1 1 .45 1 1 1zm0-4c.55 0 1-.45 1-1s-.45-1-1-1-1 .45-1 1 .45 1 1 1zM4 21h16c.55 0 1-.45 1-1s-.45-1-1-1H4c-.55 0-1 .45-1 1s.45 1 1 1zM5 9.5c.83 0 1.5-.67 1.5-1.5S5.83 6.5 5 6.5 3.5 7.17 3.5 8 4.17 9.5 5 9.5zm0 4c.83 0 1.5-.67 1.5-1.5s-.67-1.5-1.5-1.5-1.5.67-1.5 1.5.67 1.5 1.5 1.5zM9 17c.55 0 1-.45 1-1s-.45-1-1-1-1 .45-1 1 .45 1 1 1zm8-.5c.28 0 .5-.22.5-.5s-.22-.5-.5-.5-.5.22-.5.5.22.5.5.5zM3 4c0 .55.45 1 1 1h16c.55 0 1-.45 1-1s-.45-1-1-1H4c-.55 0-1 .45-1 1zm14 4.5c.28 0 .5-.22.5-.5s-.22-.5-.5-.5-.5.22-.5.5.22.5.5.5zm0 4c.28 0 .5-.22.5-.5s-.22-.5-.5-.5-.5.22-.5.5.22.5.5.5zM13 9c.55 0 1-.45 1-1s-.45-1-1-1-1 .45-1 1 .45 1 1 1zm0 4c.55 0 1-.45 1-1s-.45-1-1-1-1 .45-1 1 .45 1 1 1zm0 4c.55 0 1-.45 1-1s-.45-1-1-1-1 .45-1 1 .45 1 1 1z"/></g></svg>

<?xml version="1.0" encoding="utf-8"?>
<!-- Generator: Adobe Illustrator 19.1.0, SVG Export Plug-In . SVG Version: 6.00 Build 0)  -->
<svg version="1.1" xmlns="http://www.w3.org/2000/svg" xmlns:xlink="http://www.w3.org/1999/xlink" x="0px" y="0px" width="24px"
	 height="24px" viewBox="0 0 24 24" enable-background="new 0 0 24 24" xml:space="preserve">
<g id="Bounding_Boxes">
	<g id="ui_x5F_spec_x5F_header_copy_3">
	</g>
	<path fill="none" d="M0,0h24v24H0V0z"/>
</g>
<g id="Rounded" fill="currentColor">
	<g id="ui_x5F_spec_x5F_header_copy_7">
	</g>
	<path d="M5,17.5c0.83,0,1.5-0.67,1.5-1.5S5.83,14.5,5,14.5S3.5,15.17,3.5,16S4.17,17.5,5,17.5z M9,13c0.55,0,1-0.45,1-1
		s-0.45-1-1-1s-1,0.45-1,1S8.45,13,9,13z M9,9c0.55,0,1-0.45,1-1S9.55,7,9,7S8,7.45,8,8S8.45,9,9,9z M4,21h16c0.55,0,1-0.45,1-1v0
		c0-0.55-0.45-1-1-1H4c-0.55,0-1,0.45-1,1v0C3,20.55,3.45,21,4,21z M5,9.5c0.83,0,1.5-0.67,1.5-1.5S5.83,6.5,5,6.5S3.5,7.17,3.5,8
		S4.17,9.5,5,9.5z M5,13.5c0.83,0,1.5-0.67,1.5-1.5S5.83,10.5,5,10.5S3.5,11.17,3.5,12S4.17,13.5,5,13.5z M9,17c0.55,0,1-0.45,1-1
		s-0.45-1-1-1s-1,0.45-1,1C8,16.55,8.45,17,9,17z M17,16.5c0.28,0,0.5-0.22,0.5-0.5s-0.22-0.5-0.5-0.5s-0.5,0.22-0.5,0.5
		C16.5,16.28,16.72,16.5,17,16.5z M3,4L3,4c0,0.55,0.45,1,1,1h16c0.55,0,1-0.45,1-1v0c0-0.55-0.45-1-1-1H4C3.45,3,3,3.45,3,4z
		 M17,8.5c0.28,0,0.5-0.22,0.5-0.5S17.28,7.5,17,7.5S16.5,7.72,16.5,8C16.5,8.28,16.72,8.5,17,8.5z M17,12.5
		c0.28,0,0.5-0.22,0.5-0.5s-0.22-0.5-0.5-0.5s-0.5,0.22-0.5,0.5S16.72,12.5,17,12.5z M13,9c0.55,0,1-0.45,1-1s-0.45-1-1-1
		s-1,0.45-1,1S12.45,9,13,9z M13,13c0.55,0,1-0.45,1-1s-0.45-1-1-1s-1,0.45-1,1S12.45,13,13,13z M13,17c0.55,0,1-0.45,1-1
		s-0.45-1-1-1s-1,0.45-1,1C12,16.55,12.45,17,13,17z"/>
</g>
</svg>
